X:059 
T:Frazer's Reel
S:Donnelly < W.Jones
F:file ID: cre.4/059fraz
B:CRE4.203 (Ril Ui Fhriseal)
L:1/8
Q:180
M:4/4
R:reel
K:G
d2BG dGBe|d2BG ceeg|d2BG dGBG|cABG E2ge|
d2BG dGBe|d2BG ceeg|d2BG dGBG|cABG EF G2 ||
efge dB B2|efge fgag|efge dB B2|cABG EF G2|
efge dB B2|efge fgag|bg~g2 gedB|cABG EF G2 ||

%%%

